X: 208
T: Song of the Night Dance
C: Teton Sioux band 1911-1914
N: Derived from sioux203.krn
O: South Dakota, U.S.A.
N: Teton Sioux Music by Frances Densmore, 1918
Z: transcribed to **kern format by Craig Sapp
L: 1/8
M: 3/4
Q: 1/4=58
K: B clef=bass
%%linebreak <none>
F, F, [I:setbarnb 1]| 
F4F G ||  
[M:2/4]F2D F | 
C4 | 
B, B, z D | 
D2(3D F D | 
C4 | 
B,2(3B, D B, | 
=A,4 | 
(3F, F, F,F,2 ||  
[M:3/4]F,4F, F, | 
B,4(3B, D B, | 
=A,4F, F, | 
=A,2B, B, B, A, ||  
[M:2/4](3F, F, F,F,2 | 
F,3=A, | 
F,2F,2 | 
(3=A, F, F,F,2 | 
F,4 |]  



